svgs/regular/microphone-lines.svg

<svg xmlns="http://www.w3.org/2000/svg" viewBox="0 0 384 512"><!--! Font Awesome Pro 6.4.2 by @fontawesome - https://fontawesome.com License - https://fontawesome.com/license (Commercial License) Copyright 2023 Fonticons, Inc. --><path d="M240 128v32H208c-8.8 0-16 7.2-16 16s7.2 16 16 16h32v32H208c-8.8 0-16 7.2-16 16s7.2 16 16 16h32c0 26.5-21.5 48-48 48s-48-21.5-48-48V96c0-26.5 21.5-48 48-48s48 21.5 48 48H208c-8.8 0-16 7.2-16 16s7.2 16 16 16h32zM96 96V256c0 53 43 96 96 96s96-43 96-96V96c0-53-43-96-96-96S96 43 96 96zM64 216c0-13.3-10.7-24-24-24s-24 10.7-24 24v40c0 89.1 66.2 162.7 152 174.4V464H120c-13.3 0-24 10.7-24 24s10.7 24 24 24h72 72c13.3 0 24-10.7 24-24s-10.7-24-24-24H216V430.4c85.8-11.7 152-85.3 152-174.4V216c0-13.3-10.7-24-24-24s-24 10.7-24 24v40c0 70.7-57.3 128-128 128s-128-57.3-128-128V216z"/></svg>

<svg xmlns="http://www.w3.org/2000/svg" viewBox="0 0 384 512"><!--! Font Awesome Pro 6.0.0-alpha3 by @fontawesome - https://fontawesome.com License - https://fontawesome.com/license (Commercial License) --><path d="M192 352c53 0 96-43 96-96V96c0-53-43-96-96-96s-96 43-96 96v160C96 309 139 352 192 352zM144 96c0-26.5 21.5-48 48-48s48 21.5 48 48l-32 0c-8.844 0-16 7.156-16 16s7.156 16 16 16L240 128v32h-32C199.2 160 192 167.2 192 176S199.2 192 208 192h32v32h-32C199.2 224 192 231.2 192 240S199.2 256 208 256h32c0 26.5-21.5 48-48 48S144 282.5 144 256V96zM344 192C330.7 192 320 202.7 320 215.1V256c0 74.75-64.5 134.9-140.8 127.4C112.8 376.9 64 317.1 64 250.3v-34.25C64 202.7 53.25 192 40 192S16 202.7 16 215.1v32.15c0 89.63 64 169.6 152 181.7V464h-48C106.7 464 96 474.7 96 488C96 501.3 106.7 512 120 512h144c13.25 0 24-10.75 24-24c0-13.26-10.75-24-24-24h-48v-33.77C301.8 418.5 368 344.9 368 256V215.1C368 202.7 357.3 192 344 192z"/></svg>
